core/assets/icons/сalls_fail.outline.svg

<svg width="24" height="24" viewBox="0 0 24 24" xmlns="http://www.w3.org/2000/svg"><g id="state=outline"><path id="Vector (Stroke)" fill-rule="evenodd" clip-rule="evenodd" d="M16.6 7.31808V4.33219H17.8V7.31808H16.6ZM16.6 9.22355V8.02355H17.8V9.22355H16.6ZM20.7236 15.4429C20.7289 15.4487 20.7342 15.4546 20.7394 15.4606C20.907 15.6526 20.9996 15.8991 20.9996 16.1547V20.8645C20.9997 21.1199 20.9071 21.3665 20.7394 21.5587C20.7355 21.5631 20.7316 21.5675 20.7277 21.5719C20.7165 21.5843 20.705 21.5965 20.6932 21.6083C20.5216 21.7812 20.2951 21.8898 20.0517 21.9147C19.4923 21.9728 18.9287 22.0013 18.3608 22.0013C9.32541 22.0013 2 14.6759 2 5.64051C2 5.07263 2.0285 4.50898 2.08655 3.94955C2.1115 3.70621 2.22011 3.47964 2.393 3.30805C2.40483 3.29631 2.41696 3.28483 2.42938 3.27362C2.43375 3.26967 2.43816 3.26576 2.44259 3.26189C2.63476 3.0942 2.88136 3.00162 3.13681 3.00167H7.8466C8.10216 3.00164 8.34869 3.09431 8.54073 3.26189C8.54668 3.26709 8.55258 3.27235 8.55842 3.27769C8.55994 3.27908 8.56146 3.28047 8.56297 3.28187C8.75802 3.46205 8.87799 3.70912 8.89897 3.97382C9.0322 5.66985 9.52287 7.31847 10.3387 8.81133C10.4627 9.03781 10.4994 9.30188 10.4418 9.55358C10.3842 9.80528 10.2364 10.0271 10.0263 10.1772L8.71953 11.1103C9.70997 12.8503 11.151 14.2913 12.891 15.2818L13.8241 13.975C13.9741 13.7649 14.196 13.6171 14.4477 13.5595C14.6994 13.5019 14.9635 13.5386 15.19 13.6626C16.6828 14.4784 18.3314 14.9691 20.0275 15.1023C20.2922 15.1233 20.5392 15.2433 20.7194 15.4383C20.7208 15.4398 20.7222 15.4413 20.7236 15.4429ZM13.3137 17.2026L12.1686 16.5508C10.2006 15.4305 8.57074 13.8007 7.4505 11.8326L6.79871 10.6876L8.88955 9.19461C8.13229 7.7171 7.65373 6.11271 7.47782 4.46189H3.50601C3.47539 4.85158 3.46022 5.24441 3.46022 5.64051C3.46022 13.8694 10.1319 20.5411 18.3608 20.5411C18.7569 20.5411 19.1497 20.5259 19.5394 20.4953V16.5235C17.8886 16.3476 16.2842 15.869 14.8067 15.1117L13.3137 17.2026ZM17.2 10.3985C19.1882 10.3985 20.8 8.78676 20.8 6.79853C20.8 4.81031 19.1882 3.19853 17.2 3.19853C15.2118 3.19853 13.6 4.81031 13.6 6.79853C13.6 8.78676 15.2118 10.3985 17.2 10.3985ZM17.2 11.5985C19.851 11.5985 22 9.4495 22 6.79853C22 4.14757 19.851 1.99854 17.2 1.99854C14.549 1.99854 12.4 4.14757 12.4 6.79853C12.4 9.4495 14.549 11.5985 17.2 11.5985Z"/></g></svg>

<svg xmlns="http://www.w3.org/2000/svg" width="24" height="24" fill="none"><path fill="#191C22" fill-rule="evenodd" d="M16.6 7.318V4.332h1.2v2.986h-1.2Zm0 1.906v-1.2h1.2v1.2h-1.2Zm4.124 6.219.015.018c.168.192.26.438.26.694v4.71c0 .255-.092.502-.26.694l-.011.013a1.055 1.055 0 0 1-.676.343c-.56.058-1.123.086-1.691.086C9.325 22.001 2 14.676 2 5.641c0-.568.029-1.132.087-1.691a1.056 1.056 0 0 1 1.05-.948h4.71a1.056 1.056 0 0 1 .711.276l.005.004c.195.18.315.427.336.692a12.056 12.056 0 0 0 1.44 4.837 1.055 1.055 0 0 1-.313 1.366l-1.306.933a11.143 11.143 0 0 0 4.171 4.172l.933-1.307a1.055 1.055 0 0 1 1.366-.312 12.056 12.056 0 0 0 4.838 1.44 1.056 1.056 0 0 1 .696.34Zm-7.41 1.76-1.145-.652a12.603 12.603 0 0 1-4.719-4.718L6.8 10.688l2.09-1.493a13.516 13.516 0 0 1-1.411-4.733H3.506c-.03.39-.046.782-.046 1.179 0 8.228 6.672 14.9 14.9 14.9.397 0 .79-.015 1.18-.046v-3.972a13.515 13.515 0 0 1-4.733-1.411l-1.493 2.09Zm3.886-6.804a3.6 3.6 0 1 0 0-7.2 3.6 3.6 0 0 0 0 7.2Zm0 1.2a4.8 4.8 0 1 0 0-9.6 4.8 4.8 0 0 0 0 9.6Z" clip-rule="evenodd"/></svg>
